microphone-message.svg

<svg fill="currentColor" viewBox="0 0 24 24"><path d="M8 7a2 2 0 0 1 2 2v5a2 2 0 0 1-2 2 2 2 0 0 1-2-2V9a2 2 0 0 1 2-2m6 7c0 2.97-2.16 5.44-5 5.92V22H7v-2.08c-2.84-.48-5-2.95-5-5.92h2a4 4 0 0 0 4 4 4 4 0 0 0 4-4zm7.41-4.59-4.24 4.25L18.18 10H14a2 2 0 0 1-2-2V4a2 2 0 0 1 2-2h6a2 2 0 0 1 2 2v4c0 .55-.22 1.05-.59 1.41"/></svg>

<svg  viewBox="0 0 24 24" fill="currentColor"><path  d="M8,7A2,2 0 0,1 10,9V14A2,2 0 0,1 8,16A2,2 0 0,1 6,14V9A2,2 0 0,1 8,7M14,14C14,16.97 11.84,19.44 9,19.92V22H7V19.92C4.16,19.44 2,16.97 2,14H4A4,4 0 0,0 8,18A4,4 0 0,0 12,14H14M21.41,9.41L17.17,13.66L18.18,10H14A2,2 0 0,1 12,8V4A2,2 0 0,1 14,2H20A2,2 0 0,1 22,4V8C22,8.55 21.78,9.05 21.41,9.41Z"/></svg>
